X: 2
T: Gan Ainm
M: 9/8
L: 1/8
R: slip jig
K: D Dorian
|: Ade fge f2 d | Ade fed ecc | 
Ade fge f2 d | ede gfe f2 d :|
|: GAA fed egg | GAA fed ecc | 
GAA fed egg | ede gfe f2 d :|
